local_packages/corporate/Resources/Public/Assets/outdoor_allaround_logo_small.svg

<svg width="120" height="128" viewBox="0 0 120 128" fill="none" xmlns="http://www.w3.org/2000/svg">
<path fill-rule="evenodd" clip-rule="evenodd" d="M59.9213 0L0 103.787H119.843L59.9213 0ZM59.9213 13.3856L11.5923 97.0939H108.25L59.9213 13.3856Z" fill="black"/>
<path fill-rule="evenodd" clip-rule="evenodd" d="M59.2239 121.307C87.5943 121.307 110.675 98.1298 110.675 69.4379C110.675 40.746 87.5943 17.5686 59.2239 17.5686C30.8534 17.5686 7.77289 40.746 7.77289 69.4379C7.77289 98.1298 30.8534 121.307 59.2239 121.307ZM59.2239 128C91.3358 128 117.368 101.781 117.368 69.4379C117.368 37.0949 91.3358 10.8758 59.2239 10.8758C27.1119 10.8758 1.08008 37.0949 1.08008 69.4379C1.08008 101.781 27.1119 128 59.2239 128Z" fill="black"/>
<path fill-rule="evenodd" clip-rule="evenodd" d="M29.028 96.2091H60.8028C60.2865 92.3419 60.1543 88.1734 61.1686 84.0291C62.5814 78.2568 66.1258 72.8725 73.0411 68.3787C75.1287 67.022 76.8631 65.6413 78.0728 64.3729C79.2454 63.1433 79.6161 62.3415 79.7004 62.0075C79.6322 61.9457 79.5117 61.8515 79.3107 61.7352C78.3527 61.181 76.3245 60.5572 72.5785 60.2853C63.2241 59.6063 53.2795 65.9653 44.5625 75.0246C37.8567 81.9938 32.3686 90.0547 29.028 96.2091ZM39.7397 70.3841C48.727 61.0439 60.5488 52.7017 73.063 53.61C77.1344 53.9055 80.3817 54.6228 82.6619 55.9418C83.8442 56.6257 84.8973 57.5471 85.5948 58.7795C86.3125 60.0478 86.5232 61.4176 86.3609 62.7345C86.0606 65.172 84.5105 67.3202 82.9162 68.9919C81.2326 70.7572 79.0455 72.4586 76.6879 73.9906C71.0773 77.6367 68.6436 81.6406 67.6696 85.6201C66.656 89.7616 67.1327 94.2227 68.0343 98.9255L68.7967 102.902H18.6064L20.5885 98.245C23.5658 91.2497 30.6196 79.8623 39.7397 70.3841Z" fill="black"/>
</svg>

<svg xmlns="http://www.w3.org/2000/svg" viewBox="0 0 120 128">
    <path fill="currentColor" fill-rule="evenodd" d="M59.921 0 0 103.787h119.843L59.921 0Zm0 13.386L11.592 97.094h96.658L59.921 13.386Z" clip-rule="evenodd"/>
    <path fill="currentColor" fill-rule="evenodd" d="M59.224 121.307c28.37 0 51.451-23.177 51.451-51.87 0-28.691-23.08-51.868-51.451-51.868-28.37 0-51.451 23.177-51.451 51.869s23.08 51.869 51.45 51.869Zm0 6.693c32.112 0 58.144-26.219 58.144-58.562 0-32.343-26.032-58.562-58.144-58.562-32.112 0-58.144 26.219-58.144 58.562C1.08 101.78 27.112 128 59.224 128Z" clip-rule="evenodd"/>
    <path fill="currentColor" fill-rule="evenodd" d="M29.028 96.21h31.775c-.517-3.868-.649-8.037.366-12.18 1.412-5.773 4.957-11.157 11.872-15.651 2.088-1.357 3.822-2.738 5.032-4.006 1.172-1.23 1.543-2.032 1.627-2.366a2.29 2.29 0 0 0-.39-.272c-.957-.554-2.986-1.178-6.731-1.45-9.355-.679-19.3 5.68-28.016 14.74-6.706 6.969-12.194 15.03-15.535 21.184ZM39.74 70.383c8.987-9.34 20.809-17.682 33.323-16.774 4.071.296 7.319 1.013 9.599 2.332 1.182.684 2.235 1.605 2.933 2.837.718 1.269.928 2.639.766 3.955-.3 2.438-1.85 4.586-3.445 6.258-1.683 1.765-3.87 3.467-6.228 4.999-5.61 3.646-8.044 7.65-9.018 11.63-1.014 4.14-.537 8.602.364 13.305l.763 3.976h-50.19l1.982-4.657c2.977-6.995 10.03-18.383 19.15-27.86Z" clip-rule="evenodd"/>
</svg>
